src/Document.svg

<svg width="18" height="18" viewBox="0 0 18 18" fill="none" xmlns="http://www.w3.org/2000/svg">
<g clip-path="url(#clip0_6762_1264)">
<path d="M14 2H4V16H14V2ZM15 1.5V16.5C15 16.6326 14.9473 16.7598 14.8536 16.8536C14.7598 16.9473 14.6326 17 14.5 17H3.5C3.36739 17 3.24021 16.9473 3.14645 16.8536C3.05268 16.7598 3 16.6326 3 16.5V1.5C3 1.36739 3.05268 1.24021 3.14645 1.14645C3.24021 1.05268 3.36739 1 3.5 1H14.5C14.6326 1 14.7598 1.05268 14.8536 1.14645C14.9473 1.24021 15 1.36739 15 1.5ZM6 10H12V11H6V10ZM6 13H10V14H6V13Z" fill="black"/>
</g>
<defs>
<clipPath id="clip0_6762_1264">
<rect width="18" height="18" fill="white"/>
</clipPath>
</defs>
</svg>

<svg width="18" height="18" viewBox="0 0 18 18" fill="none" xmlns="http://www.w3.org/2000/svg">
<path d="M14 2H4v14h10zm1-.5v15a.5.5 0 0 1-.5.5h-11a.5.5 0 0 1-.5-.5v-15a.5.5 0 0 1 .5-.5h11a.5.5 0 0 1 .5.5M6 10h6v1H6zm0 3h4v1H6z" fill="black"/>
</svg>
